X:7
T:Qute du Mardi-Gras
R:Branle double
O:Alsace - Elsass
A:toute l'Alsace
S:
B:La tradition Alsacienne.
Z:transcription (partition) : <anamnese@laposte.net>
N:p.29
N:
M:2/4
L:1/8
Q:1/4=120
K:G
G>A Bc | d>e dB | c>B cd |1 B>A Bz :|2 B>A BD | GG AA |
(Bd) dD | GG AA | (Bd) dz | Bd Gz | Bd Gz | AA BB | dd Gz ||
